X: 83
T:Lloyd of Binghampton
% Nottingham Music Database
S:via PR
M:4/4
L:1/4
K:Bb
F/2E/2|"Bb"DF2B/2c/2|d/2e/2d/2c/2 BD|"Eb"EG2e/2f/2|g/2f/2e/2d/2 c/2d/2c/2B/2|
"F"Aa ag/2a/2|"Bb"bf dc/2B/2|"F"A/2B/2c/2d/2 e/2c/2A/2c/2|"Bb"Bd B::
B/2A/2|"Gm"GD3/2G/2^F/2G/2|A/2G/2^F/2G/2 B/2G/2F/2G/2|"F"FC3/2F/2=E/2F/2|\
G/2F/2=E/2F/2 A/2F/2E/2F/2|
"Gm"GD3/2G/2^F/2G/2|A/2G/2^F/2G/2 B/2G/2F/2G/2|"Eb"e/2g/2f/2e/2 d/2c/2B/2c/2|\
"Bb"dB F:|


